X: 61
M:6/8
L:1/8
K:G
c|BGB def|gdc B2 G|cec BdB|cAA A2 c|
|:c|dBB GBB|dBB GBB|cAA FAA|cAA GBc|
dBB ecc|fdd gee|dBB cAf|gGG G2:||

